static/img/check_icon.svg

<svg fill="none" height="30" viewBox="0 0 30 30" width="30" xmlns="http://www.w3.org/2000/svg"><circle cx="15" cy="15" fill="#0ae3bc" fill-opacity=".2" r="15"/><path d="m15 26c6.0751 0 11-4.9249 11-11 0-6.07513-4.9249-11-11-11-6.07513 0-11 4.92487-11 11 0 6.0751 4.92487 11 11 11z" fill="#2ebfa5"/><path d="m13.3328 20.7064-5.0703-5.0703c-.06875-.0688-.06875-.1719 0-.2406l1.46094-1.461c.06875-.0687.17187-.0687.24062 0l3.48904 3.4891 6.5656-6.5656c.0688-.0688.1719-.0688.2407 0l1.4609 1.4609c.0688.0687.0688.1719 0 .2406l-8.1469 8.1469c-.0687.0687-.1718.0687-.2406 0z" fill="#fff"/></svg>

<svg width="30" height="30" viewBox="0 0 30 30" fill="none" xmlns="http://www.w3.org/2000/svg">
<circle cx="15" cy="15" r="15" fill="#0AE3BC" fill-opacity="0.2"/>
<path d="M15 26C21.0751 26 26 21.0751 26 15C26 8.92487 21.0751 4 15 4C8.92487 4 4 8.92487 4 15C4 21.0751 8.92487 26 15 26Z" fill="#2EBFA5"/>
<path d="M13.3328 20.7064L8.2625 15.6361C8.19375 15.5673 8.19375 15.4642 8.2625 15.3955L9.72344 13.9345C9.79219 13.8658 9.89531 13.8658 9.96406 13.9345L13.4531 17.4236L20.0187 10.858C20.0875 10.7892 20.1906 10.7892 20.2594 10.858L21.7203 12.3189C21.7891 12.3876 21.7891 12.4908 21.7203 12.5595L13.5734 20.7064C13.5047 20.7751 13.4016 20.7751 13.3328 20.7064Z" fill="white"/>
</svg>
